X:505
T:Ta da rada radi
Z:Jack Campin, http://www.campin.me.uk/
F:Jack Campin's Nine-Note Tunebook
% last edit 03-02-2013
B:Bazsarozsa: 99 Cigany Nepdal, Editio Musica Budapest Z.1813
N:This is Gypsy folk music, not the music of Gypsy professional
N:musicians.  It's usually performed vocally with no instruments
N:other than percussion done by clapping, stamping or whacking
N:large jugs.  So I've included the nonsense words.
M:2/4
L:1/16
Q:1/4=112
K:F
d3A  BAB=B|  c2A2 F2A2|
w:Ta da ra-da ra-di rad-dad-dad-da
G3F  GABG |  A2F2F2F2|
w:Ta-da ra-di ra-di rad-dad-dad-da
d3A  BAB=B|  c2A2 F2A2|
w:Ti ri la-la la-la rid-da-dad-da
G3F  GABG |  A2F2F2z2||
w:Ta-ra ra-da ra-da rid-dad-da.
ABc2 FGA2 |  FGA2F2A2|
w:Ta-di-rad da-di-rad  da-di-rad dal-la
G3F  GABG |[1A2F2F2F2:|[2A2F2F2z2|]
w:Ta-ra ra-ra-ra-ra rid-da dad-da rid-dad-da.

